X:152
T:Mucking of Geordie's Byre
R:Jig
M:6/8
K:D
B|:ABA AFA|d2e f2a|g2e f2d|e2d Bcd|
|ABA AFA|d2e f2g|afd efe|1 d3 dcB:|2 d3def|
|:a2a aba|g2g gag|efe ede|fed BAG|
|ABA AFA|d2e f2g|afd efe|1 d3 def:|2 d3dcB |
